apps/www/public/images/logos/publicity/archive/mobbin.svg

<svg width="150" height="22" viewBox="0 0 150 22" fill="none" xmlns="http://www.w3.org/2000/svg">
<path d="M46.3572 10.3001H34.7903V21.7365H46.3572V10.3001ZM0.0922852 21.7365V11.6677L11.5959 0.292725H21.7788V10.3616L10.2752 21.7365H0.0922852Z" fill="#B4B4B4"/>
<path d="M17.4414 21.7365V11.6677L28.945 0.292725H39.1279V10.3616L27.6243 21.7365H17.4414ZM70.4446 15.3579L64.5261 1.90588H59.7451V19.8553H63.3155L63.3233 7.75906L68.7232 19.8553H72.1649L77.5727 7.76198V19.8553H81.1431V1.90588H76.3601L70.4446 15.3579ZM89.7664 6.4081C83.8148 6.4081 82.5661 10.0886 82.5661 13.1746C82.5661 17.8893 84.9445 20.1799 89.8366 20.1799C94.7296 20.1799 97.0612 17.9088 97.0612 13.2379C97.0612 8.5671 94.6068 6.40517 89.7693 6.40517L89.7664 6.4081ZM86.2769 13.1112C86.2769 10.7524 86.8149 9.55449 89.7664 9.55449C92.5131 9.55449 93.3504 10.4259 93.3504 13.2877C93.3504 16.1484 92.5238 17.0403 89.8132 17.0403C87.1034 17.0403 86.2759 16.1241 86.2759 13.1132V13.1112H86.2769ZM106.43 6.43052H106.361C104.218 6.44026 102.544 7.9501 102.103 8.63533V1.90588H98.4862V19.8553H102.103V19.7335L102.122 18.0219C102.71 18.9703 104.283 20.1828 106.339 20.1828C110.836 20.1828 112.756 18.1651 112.756 13.4378C112.756 8.71038 110.805 6.43247 106.43 6.43247V6.43052ZM109.115 13.1746C109.115 16.7459 107.449 17.0354 105.436 17.0354C103.422 17.0354 101.803 16.7508 101.803 13.2604C101.803 10.6062 102.834 9.57203 105.482 9.57203C108.13 9.57203 109.115 10.4785 109.115 13.1726V13.1746ZM122.133 6.43052H122.063C119.92 6.44026 118.247 7.9501 117.806 8.63533V1.90588H114.189V19.8553H117.805V19.7335L117.825 18.0219C118.412 18.9673 119.985 20.1799 122.043 20.1799C126.539 20.1799 128.459 18.1622 128.459 13.4348C128.459 8.70843 126.507 6.43052 122.133 6.43052ZM124.817 13.1746C124.817 16.7459 123.151 17.0354 121.139 17.0354C119.125 17.0354 117.506 16.7508 117.506 13.2604C117.506 10.6062 118.537 9.57203 121.185 9.57203C123.833 9.57203 124.817 10.4785 124.817 13.1726V13.1746ZM133.607 6.71319H129.99V19.8553H133.607V6.71319ZM143.301 6.42564C141.293 6.42564 139.67 7.67133 139.149 8.63533V6.71319H135.533V19.8553H139.149V12.1969C139.149 10.4795 139.666 9.65975 142.598 9.65975C144.819 9.65975 145.607 10.345 145.607 12.2817V19.8533H149.224V13.0644C149.224 8.12555 147.729 6.45001 143.301 6.42272V6.42564ZM133.607 1.90588H129.99V5.31057H133.607V1.90588Z" fill="#B4B4B4"/>
</svg>

<svg xmlns="http://www.w3.org/2000/svg" width="150" height="22" fill="none" viewBox="0 0 150 22"><path fill="#b4b4b4" d="M46.357 10.3H34.79v11.436h11.567zM.092 21.736V11.669L11.596.293h10.183v10.069L10.275 21.737z"/><path fill="#b4b4b4" d="M17.441 21.737v-10.07L28.945.294h10.183v10.069L27.624 21.737zm53.004-6.38L64.526 1.907h-4.78v17.95h3.57l.007-12.097 5.4 12.096h3.442l5.408-12.093v12.093h3.57V1.905H76.36zm19.321-8.949c-5.951 0-7.2 3.68-7.2 6.767 0 4.714 2.379 7.005 7.27 7.005 4.894 0 7.225-2.271 7.225-6.942 0-4.67-2.454-6.833-7.292-6.833zm-3.49 6.703c0-2.359.539-3.557 3.49-3.557 2.747 0 3.584.872 3.584 3.734 0 2.86-.826 3.752-3.537 3.752s-3.537-.916-3.537-3.927zm20.154-6.68h-.069c-2.143.01-3.817 1.52-4.258 2.204v-6.73h-3.617v17.95h3.617v-.122l.019-1.711c.588.948 2.161 2.16 4.217 2.16 4.497 0 6.417-2.017 6.417-6.744s-1.951-7.006-6.326-7.006zm2.685 6.744c0 3.57-1.666 3.86-3.679 3.86s-3.633-.284-3.633-3.775c0-2.654 1.031-3.688 3.679-3.688s3.633.907 3.633 3.6zm13.018-6.744h-.07c-2.143.01-3.816 1.52-4.257 2.204v-6.73h-3.617v17.95h3.616v-.122l.02-1.711c.587.945 2.16 2.158 4.218 2.158 4.496 0 6.416-2.018 6.416-6.745s-1.952-7.004-6.326-7.004m2.684 6.744c0 3.57-1.666 3.86-3.678 3.86-2.014 0-3.633-.284-3.633-3.775 0-2.654 1.031-3.688 3.679-3.688s3.632.907 3.632 3.6zm8.79-6.462h-3.617v13.142h3.617zm9.694-.287c-2.008 0-3.631 1.245-4.152 2.21V6.712h-3.616v13.142h3.616v-7.658c0-1.717.517-2.537 3.449-2.537 2.221 0 3.009.685 3.009 2.622v7.571h3.617v-6.789c0-4.938-1.495-6.614-5.923-6.641zm-9.694-4.52h-3.617V5.31h3.617z"/></svg>
